!!!OTL: Gechang zhude zongsiling
!!!ARE: Asia, China,ÿHubei Dangyang
!! I, 366
!!!SCT: C2131
!!!YEM: Copyright 1995, estate of Helmut Schaffrath.
**kern
*ICvox
*Ivox
*M2/4
*k[]
*C:
{8a
16a
16cc
8e
8g
=1
8a
4a
8g
=2
8a
16a
16cc
8e
8g
=3
2a}
=4
{4dd
4ee
=5
8.dd
16ee
8dd
8cc
=6
8a
4a
8dd
=7
8cc
8dd
8cc
8a}
=8
{8cc
16e
16e
8g
8a
=9
4a
4cc
=10
8.g
16cc
8a
8g
=11
2e}
==
!!!AGN: Xiaodiao. Xin minge
!!!ONB: ESAC (Essen Associative Code) Database: SENGANSU
!!!AMT: simple duple
!!!AIN: vox
!!!EED: Helmut Schaffrath
!!!EEV: 1.0
*-
